X: 5
T:Maid and the Palmer
M:4/4
L:1/4
Q:115
S:(Badby A1B3)
O:From Night Till Morn
A:Sussex
N:Badby style Morris Danc
D:Brass Monkey
H:Sussex Tune Book: Night and Morn
Z:Bill Johnston G Morris variant
K:G
G/2A/2|BBBA/2G/2|A/2G/2A/2B/2GA/2B/2|c/2B/2A/2G/2 G/2A/2B/2c/2|de/2c/2BA
|BBBA/2G/2|A/2G/2A/2B/2GA/2B/2|c/2B/2A/2G/2 G/2A/2B/2c/2|AB/2A/2G2||
|B>cdd|ded2|edgd|de/2d/2BA|B2BA/2G/2|A/2G/2A/2B/2 GA/2B/2|c/2B/2A/2G/2 G
/2A/2B/2c/2|AB/2A/2G||:
